!!!SOCIAL_FUNCTION:	songs with treatment of the sick
!!!PDT:	1943
!!!OTL: No_3_Song_When_Treating_Fever.krn
!!!REG: British Columbia
**kern
*staff1
=1-
*clefF4
*k[b-e-]
*M2/4
8.B-\L
16A\Jk
4B-\
=2
4.r
8G\
=3
8.F\L
16G\Jk
4F\
=4
2r
=5
8.B-\L
16A\Jk
8B-\L
16G\L
16G\JJ
=6||
*M3/4
4F\
8G\
4.r
=7||
*M2/4
(8G\L
16F\L)
16F\JJ
8F\
8r
=8
(8F\L
16D\L)
16D\JJ
8D\
8r
=9
8.F\L
16F\Jk
8F\L
16F\L
16F\JJ
=10
4D\
8F\
8r
=11
8.B-\L
16A\Jk
8B-\
16r
16G\
=12
8.F\L
16G\Jk
8F\L
16B-\L
16B-\JJ
=13
8B-\L
16F\L
16G\JJ
8B-\L
16.G\L
32G\JJk
=14
8.F\L
16G\Jk
8F\
16r
16D\
=15
4F\
16.G\LL
32G\K
16.G\
32G\JJk
=16
4F\
8D\
16r
16G\
=17
16F\LL
16G\J
8F\J
16D\
16r
16.G\LL
32F\JJk
=18
8D\L
8F\J
8D\
16r
16G\
=19
8.F\L
16G\Jk
16F\LL
16D\
16.F\
32F\JJk
=20
8.D\L
16F\Jk
8D\
16r
16G\
=21
16F\LL
16G\J
8F\J
16D\
16r
16.G\LL
32F\JJk
=22
8D\L
8F\J
8D\
16r
16G\
=23
8.F\L
16G\Jk
8F\L
16.F\L
32F\JJk
=24
4D\
8F\
16r
16G\
=25||
*M3/4
16F\LL
16G\J
8F\J
16.F\LL
32D\K
16.G\
32G\JJk
8D\
16r
16A\
=26||
*M3/8
8.G\L
16A\L
16B-\
16G\JJ
=27||
*M2/4
4F\
4D\
=28
16G\LL
16F\
16F\
16D\JJ
8F\L
16D\Jk
16r
==
*-
